X:1
T:Title
%%score 1 2 3 4
L:1/8
Q:1/4=85
M:6/8
K:F
V:1 treble nm="Church Organ, Soprano"
V:2 treble nm="French Horn, Alto"
V:3 bass nm="Trombone, Tenor"
V:4 bass nm="Tuba, Bass"
V:1
 F/F/FG ABc | d_ed ^c d2 | =B d2 cGG | AcB G F2- | FFG ABc | d_eB c d2 | dc=B cdd | cBA G F2- | %8
w: By~F.~Schilling * * * * * *||||||||
 F F2- F/ z/ G2- | GGF E F2- | F F2- F/ z/ c2- | cFB c d2 | d _e2- e/ z/ B2 | c d2- d/ z/ B2 | %14
w: ||||||
 GFE F d2 | c B2- B B2 |] %16
w: ||
V:2
 D/D/D_E CDE | FGF E F2 | F E2 E_EE | _E D2 ^C D2- | DD_E CDE | F _E2 E D2 | FFF FEE | FEF E F2- | %8
w: There's~ a~ won der ful~ tree,~ *|a~ won der ful~ tree,~|The~ hap py~ child ren~|re joices~ to~ see~|* Sprea ding~ its~ branch *|es~ year~ by~ year,~|It~ comes~ from~ the~ for est~|to~ flour * ish~ here.~|
 F D2- D/ z/ ^C2- | C^CD C D2- | D _E2- E/ z/ E2- | E D2 _E F2 | _A G2- G/ z/ G2 | %13
w: * Oh,~ * this~|* beau ti ful~ tree,~|* with~ * its~|* branch es~ wide,~|Is~ al * ways,~|
 ^F =F2- F/ z/ D2 | ^CDC D _E2 | _E D2- D D2 |] %16
w: Is~ al * ways~|* bloom ing~ at~ Christ|mas tide.~ * *|
V:3
 B,/B,/B,B, B, B,2 | B,B,B, B, B,2 | G, B,2 B,A,A, | F, F,2 E, F,2- | F,B,B, B, B,2 | %5
 B, G,2 ^F, =F,2 | B,A,_A, =A,B,B, | A,G,C B, A,2- | A, F,2- F,/ z/ E,2- | E,E,F, G, F,2- | %10
 F, A,2- A,/ z/ A,2- | A, B,2 B, B,2 | B, B,2- B,/ z/ B,2 | B, B,2- B,/ z/ F,2 | B,B,B, B, A,2 | %15
 A, B,2- B, B,2 |] %16
V:4
 B,,/B,,/B,,B,, B,, B,,2 | B,,B,,B,, B,, B,,2 | D, C,2 C,F,F, | F, B,,2 B,, B,,2- | %4
 B,,B,,B,, B,, B,,2 | B,, B,,2 B,, B,,2 | B,,C,C, C,C,C, | C, C,2 C, F,2- | %8
 F, B,,2- B,,/ z/ B,,2- | B,,B,,B,, B,, B,,2- | B,, C,2- C,/ z/ F,2- | F, B,,2 B,, B,,2 | %12
 B,, _E,2- E,/ z/ E,2 | _E, B,,2- B,,/ z/ B,,2 | E,F,G, F, F,2 | F, B,,2- B,, B,,2 |] %16

